noun-dead-fish-5797619.svg

<svg xmlns="http://www.w3.org/2000/svg" viewBox="0 0 40 50" x="0px" y="0px"><path d="m30,38c.55,0,1,.45,1,1s-.45,1-1,1-1-.45-1-1,.45-1,1-1h0Zm-11.5-3c-1.38,0-2.5,1.12-2.5,2.5s1.12,2.5,2.5,2.5,2.5-1.12,2.5-2.5-1.12-2.5-2.5-2.5h0Zm2.54-12.38l-.68-1.14c-.28-.47-.9-.63-1.37-.34-.47.28-.63.9-.34,1.37l1.14,1.91c-.23.06-.49.08-.78.08-.03,0-.06,0-.09,0l-1.21-2.02c-.28-.47-.9-.63-1.37-.34-.47.28-.63.9-.34,1.37l1.32,2.2c-.29.22-.57.38-.86.51l-1.09-1.83c-.28-.47-.9-.63-1.37-.34-.47.28-.63.9-.34,1.37l.59.98c-.52-.11-1.03-.31-1.52-.54-.36-.17-.78-.11-1.08.15-1.15,1-2.27,2.11-3.31,3.36l-6.17-3.56c-.24-.14-.53-.17-.8-.09-.27.08-.49.27-.6.53-.79,1.65-.99,3.18-.45,4.46.28.66.76,1.27,1.51,1.8-.44,1.1-.48,2.1-.21,2.99.33,1.1,1.15,2.08,2.43,2.91.23.15.51.2.78.13.27-.06.49-.23.63-.47l3.56-6.17c6.5,2.38,12.88,2.06,17.62.79.4-.11.78-.22,1.17-.34l-.31,1.53c-.11.54.24,1.07.78,1.18.54.11,1.07-.24,1.18-.78l.23-1.13.76.86c.37.41,1,.45,1.41.08.41-.37.45-1,.08-1.41l-1.27-1.43c2.44-1.11,4.41-2.48,5.71-3.85,1.53-1.63,2.12-3.32,1.76-4.67-.36-1.35-1.72-2.52-3.86-3.16-2.72-.82-6.78-.86-11.08.29-.49.13-.99.28-1.5.45-.45.15-.73.59-.68,1.06.05.46.06.87.03,1.23h0Zm-12.04,13.38c.55,0,1,.45,1,1s-.45,1-1,1-1-.45-1-1,.45-1,1-1h0Zm9.5,1c.28,0,.5.22.5.5s-.22.5-.5.5-.5-.22-.5-.5.22-.5.5-.5h0Zm19-5c-1.38,0-2.5,1.12-2.5,2.5s1.12,2.5,2.5,2.5,2.5-1.12,2.5-2.5-1.12-2.5-2.5-2.5h0Zm-30.3-.95l-2.92,5.05c-.37-.35-.63-.73-.76-1.16-.2-.68-.03-1.43.46-2.31.13-.24.17-.52.09-.78-.08-.26-.26-.48-.51-.6-.73-.37-1.2-.8-1.42-1.31-.23-.54-.19-1.15,0-1.8l5.04,2.91h0Zm30.3,2.95c.28,0,.5.22.5.5s-.22.5-.5.5-.5-.22-.5-.5.22-.5.5-.5h0Zm-8.58-12.99c-1.62.06-3.4.32-5.22.81-.22.06-.44.12-.66.19.03,1.38-.3,2.4-.84,3.11-.63.82-1.56,1.28-2.75,1.37-.99,1.02-1.98,1.58-2.96,1.84-1.38.37-2.74.14-4.02-.37h0c-.77.7-1.52,1.46-2.24,2.28,5.86,2.01,11.59,1.7,15.87.55,1.83-.49,3.5-1.16,4.94-1.92-.33-.18-.69-.41-1.04-.67-.87-.66-1.67-1.57-1.98-2.73-.32-1.19-.08-2.38.34-3.38.17-.39.36-.75.56-1.07h0Zm2.43.06s0,0,0,0c0,0-.7.74-1.14,1.78-.26.62-.45,1.35-.25,2.09.19.71.72,1.24,1.25,1.65.86.65,1.78.97,1.89,1.01.7-.5,1.31-1.03,1.81-1.55.94-1,1.51-1.95,1.29-2.78-.22-.83-1.19-1.37-2.5-1.76-.69-.21-1.48-.36-2.34-.44h0Zm1.28,1.56c-.48-.28-1.09-.11-1.37.37-.28.48-.11,1.09.37,1.37-.28.48-.11,1.09.37,1.37.48.28,1.09.11,1.37-.37.48.28,1.09.11,1.37-.37.28-.48.11-1.09-.37-1.37.28-.48.11-1.09-.37-1.37-.48-.28-1.09-.11-1.37.37h0ZM4.5,15c-1.38,0-2.5,1.12-2.5,2.5s1.12,2.5,2.5,2.5,2.5-1.12,2.5-2.5-1.12-2.5-2.5-2.5h0Zm0,2c.28,0,.5.22.5.5s-.22.5-.5.5-.5-.22-.5-.5.22-.5.5-.5h0Zm14.5-2c.55,0,1,.45,1,1s-.45,1-1,1-1-.45-1-1,.45-1,1-1h0Zm17-1c.55,0,1,.45,1,1s-.45,1-1,1-1-.45-1-1,.45-1,1-1h0Zm1.18-3.24c-.04-.06-.06-.16-.1-.25-.1-.27-.2-.59-.33-.92-.3-.76-.75-1.52-1.56-2.02-.54-.33-1.24-.56-2.19-.56-.55,0-1,.45-1,1,0,0,0,.81-.3,1.57-.22.55-.65,1.1-1.53.95-.75-.13-1.51-.48-2.28-.79-.96-.39-1.93-.72-2.89-.72-.85,0-1.64.37-2.43.85-.78.48-1.56,1.15-2.57,1.15s-1.79-.66-2.57-1.15c-.79-.49-1.58-.85-2.43-.85-1,0-2.02.54-3.01,1.14-.67.4-1.32.86-1.99.86-.36,0-.72-.15-1.09-.33-.5-.24-1-.56-1.48-.84-.84-.48-1.67-.83-2.42-.83-.57,0-1.26.21-1.95.53-1.35.63-2.68,1.69-2.68,1.69-.43.34-.5.97-.16,1.41.34.43.97.5,1.41.16,0,0,.84-.67,1.81-1.2.54-.3,1.11-.58,1.57-.58.6,0,1.25.46,1.93.86,1.02.59,2.08,1.14,3.07,1.14s2.02-.54,3.01-1.14c.67-.4,1.32-.86,1.99-.86s1.22.45,1.84.85c.95.6,1.96,1.15,3.16,1.15s2.22-.56,3.16-1.15c.62-.39,1.18-.85,1.84-.85.71,0,1.42.28,2.13.57.91.37,1.81.76,2.7.91.85.14,1.53,0,2.08-.26.8-.4,1.33-1.13,1.64-1.91.16-.4.26-.81.33-1.17.14.05.26.12.36.2.47.37.64.94.8,1.41.22.63.45,1.16.75,1.46.25.25.7.47,1.25.6.86.19,1.96.2,1.96.2.55,0,1-.45,1-1s-.45-1-1-1c0,0-.64,0-1.25-.1-.19-.03-.49-.12-.57-.15h0Zm-7.68-7.76c-1.38,0-2.5,1.12-2.5,2.5s1.12,2.5,2.5,2.5,2.5-1.12,2.5-2.5-1.12-2.5-2.5-2.5h0Zm-14.79,3.71s.27-.27.65-.49c.19-.11.41-.22.64-.22s.45.11.64.22c.38.22.65.49.65.49.39.39,1.02.39,1.42,0,0,0,.27-.27.65-.49.19-.11.41-.22.64-.22s.45.11.64.22c.38.22.65.49.65.49.39.39,1.02.39,1.42,0,.39-.39.39-1.02,0-1.42,0,0-1.37-1.29-2.71-1.29-.74,0-1.48.39-2,.74-.52-.35-1.26-.74-2-.74-1.34,0-2.71,1.29-2.71,1.29-.39.39-.39,1.02,0,1.42.39.39,1.02.39,1.42,0h0Zm14.79-1.71c.28,0,.5.22.5.5s-.22.5-.5.5-.5-.22-.5-.5.22-.5.5-.5h0Zm4.5-3c.55,0,1,.45,1,1s-.45,1-1,1-1-.45-1-1,.45-1,1-1h0ZM2.71,2.71s.27-.27.65-.49c.19-.11.41-.22.64-.22s.45.11.64.22c.38.22.65.49.65.49.39.39,1.02.39,1.42,0,0,0,.27-.27.65-.49.19-.11.41-.22.64-.22s.45.11.64.22c.38.22.65.49.65.49.39.39,1.02.39,1.42,0,.39-.39.39-1.02,0-1.42,0,0-1.37-1.29-2.71-1.29-.74,0-1.48.39-2,.74-.52-.35-1.26-.74-2-.74C2.66,0,1.29,1.29,1.29,1.29c-.39.39-.39,1.02,0,1.42.39.39,1.02.39,1.42,0h0Z" fill-rule="evenodd"/><text x="0" y="55" fill="#000000" font-size="5px" font-weight="bold" font-family="'Helvetica Neue', Helvetica, Arial-Unicode, Arial, Sans-serif">Created by Soni Sokell</text><text x="0" y="60" fill="#000000" font-size="5px" font-weight="bold" font-family="'Helvetica Neue', Helvetica, Arial-Unicode, Arial, Sans-serif">from the Noun Project</text></svg>

<?xml version="1.0" encoding="utf-8"?>
<!-- Generator: Adobe Illustrator 28.3.0, SVG Export Plug-In . SVG Version: 6.00 Build 0)  -->
<svg version="1.1" id="Layer_1" xmlns="http://www.w3.org/2000/svg" xmlns:xlink="http://www.w3.org/1999/xlink" x="0px" y="0px"
	 viewBox="0 0 40 50" style="enable-background:new 0 0 40 50;" xml:space="preserve">
<style type="text/css">
	.st0{fill-rule:evenodd;clip-rule:evenodd;fill:#FFFFFF;}
</style>
<path class="st0" d="M30,38c0.5,0,1,0.5,1,1s-0.5,1-1,1s-1-0.5-1-1S29.5,38,30,38L30,38z M18.5,35c-1.4,0-2.5,1.1-2.5,2.5
	s1.1,2.5,2.5,2.5s2.5-1.1,2.5-2.5S19.9,35,18.5,35L18.5,35z M21,22.6l-0.7-1.1c-0.3-0.5-0.9-0.6-1.4-0.3c-0.5,0.3-0.6,0.9-0.3,1.4
	l1.1,1.9c-0.2,0.1-0.5,0.1-0.8,0.1c0,0-0.1,0-0.1,0l-1.2-2c-0.3-0.5-0.9-0.6-1.4-0.3c-0.5,0.3-0.6,0.9-0.3,1.4l1.3,2.2
	c-0.3,0.2-0.6,0.4-0.9,0.5l-1.1-1.8c-0.3-0.5-0.9-0.6-1.4-0.3c-0.5,0.3-0.6,0.9-0.3,1.4l0.6,1c-0.5-0.1-1-0.3-1.5-0.5
	c-0.4-0.2-0.8-0.1-1.1,0.1c-1.1,1-2.3,2.1-3.3,3.4l-6.2-3.6c-0.2-0.1-0.5-0.2-0.8-0.1S0.9,26,0.8,26.3c-0.8,1.6-1,3.2-0.4,4.5
	c0.3,0.7,0.8,1.3,1.5,1.8c-0.4,1.1-0.5,2.1-0.2,3c0.3,1.1,1.1,2.1,2.4,2.9c0.2,0.2,0.5,0.2,0.8,0.1c0.3-0.1,0.5-0.2,0.6-0.5L9,31.9
	c6.5,2.4,12.9,2.1,17.6,0.8c0.4-0.1,0.8-0.2,1.2-0.3l-0.3,1.5c-0.1,0.5,0.2,1.1,0.8,1.2s1.1-0.2,1.2-0.8l0.2-1.1l0.8,0.9
	c0.4,0.4,1,0.5,1.4,0.1s0.5-1,0.1-1.4l-1.3-1.4c2.4-1.1,4.4-2.5,5.7-3.9c1.5-1.6,2.1-3.3,1.8-4.7s-1.7-2.5-3.9-3.2
	c-2.7-0.8-6.8-0.9-11.1,0.3c-0.5,0.1-1,0.3-1.5,0.5c-0.5,0.1-0.7,0.6-0.7,1.1C21.1,21.8,21.1,22.2,21,22.6L21,22.6L21,22.6z M9,36
	c0.6,0,1,0.5,1,1s-0.4,1-1,1s-1-0.5-1-1S8.5,36,9,36L9,36z M18.5,37c0.3,0,0.5,0.2,0.5,0.5S18.8,38,18.5,38S18,37.8,18,37.5
	S18.2,37,18.5,37L18.5,37z M37.5,32c-1.4,0-2.5,1.1-2.5,2.5s1.1,2.5,2.5,2.5s2.5-1.1,2.5-2.5S38.9,32,37.5,32L37.5,32z M7.2,31
	l-2.9,5c-0.4-0.3-0.6-0.7-0.8-1.2c-0.2-0.7,0-1.4,0.5-2.3c0.1-0.2,0.2-0.5,0.1-0.8s-0.3-0.5-0.5-0.6c-0.7-0.4-1.2-0.8-1.4-1.3
	c-0.2-0.5-0.2-1.1,0-1.8L7.2,31L7.2,31L7.2,31z M37.5,34c0.3,0,0.5,0.2,0.5,0.5S37.8,35,37.5,35S37,34.8,37,34.5S37.2,34,37.5,34
	L37.5,34z M28.9,21c-1.6,0.1-3.4,0.3-5.2,0.8c-0.2,0.1-0.4,0.1-0.7,0.2c0,1.4-0.3,2.4-0.8,3.1c-0.6,0.8-1.6,1.3-2.8,1.4
	c-1,1-2,1.6-3,1.8c-1.4,0.4-2.7,0.1-4-0.4l0,0c-0.8,0.7-1.5,1.5-2.2,2.3c5.9,2,11.6,1.7,15.9,0.5c1.8-0.5,3.5-1.2,4.9-1.9
	c-0.3-0.2-0.7-0.4-1-0.7c-0.9-0.7-1.7-1.6-2-2.7c-0.3-1.2-0.1-2.4,0.3-3.4C28.5,21.7,28.7,21.3,28.9,21L28.9,21L28.9,21z M31.4,21.1
	L31.4,21.1c0,0-0.7,0.7-1.1,1.8c-0.3,0.6-0.5,1.4-0.2,2.1c0.2,0.7,0.7,1.2,1.2,1.6c0.9,0.6,1.8,1,1.9,1c0.7-0.5,1.3-1,1.8-1.5
	c0.9-1,1.5-2,1.3-2.8c-0.2-0.8-1.2-1.4-2.5-1.8C33,21.3,32.2,21.1,31.4,21.1L31.4,21.1L31.4,21.1z M32.6,22.6
	c-0.5-0.3-1.1-0.1-1.4,0.4c-0.3,0.5-0.1,1.1,0.4,1.4c-0.3,0.5-0.1,1.1,0.4,1.4s1.1,0.1,1.4-0.4c0.5,0.3,1.1,0.1,1.4-0.4
	c0.3-0.5,0.1-1.1-0.4-1.4c0.3-0.5,0.1-1.1-0.4-1.4S32.9,22.1,32.6,22.6L32.6,22.6z M4.5,15C3.1,15,2,16.1,2,17.5S3.1,20,4.5,20
	S7,18.9,7,17.5S5.9,15,4.5,15L4.5,15z M4.5,17C4.8,17,5,17.2,5,17.5S4.8,18,4.5,18S4,17.8,4,17.5S4.2,17,4.5,17L4.5,17z M19,15
	c0.5,0,1,0.4,1,1c0,0.5-0.5,1-1,1s-1-0.5-1-1S18.5,15,19,15L19,15z M36,14c0.5,0,1,0.4,1,1s-0.5,1-1,1s-1-0.4-1-1S35.5,14,36,14
	L36,14z M37.2,10.8c0-0.1-0.1-0.2-0.1-0.2c-0.1-0.3-0.2-0.6-0.3-0.9c-0.3-0.8-0.8-1.5-1.6-2C34.6,7.2,33.9,7,33,7c-0.5,0-1,0.4-1,1
	c0,0,0,0.8-0.3,1.6c-0.2,0.6-0.6,1.1-1.5,0.9c-0.8-0.1-1.5-0.5-2.3-0.8C26.9,9.3,26,9,25,9c-0.9,0-1.6,0.4-2.4,0.9
	C21.8,10.3,21,11,20,11s-1.8-0.7-2.6-1.1C16.6,9.4,15.9,9,15,9c-1,0-2,0.5-3,1.1c-0.7,0.4-1.3,0.9-2,0.9c-0.4,0-0.7-0.1-1.1-0.3
	c-0.5-0.2-1-0.6-1.5-0.8C6.6,9.4,5.8,9,5,9c-0.6,0-1.3,0.2-2,0.5c-1.4,0.6-2.7,1.7-2.7,1.7c-0.4,0.3-0.5,1-0.2,1.4
	c0.3,0.4,1,0.5,1.4,0.2c0,0,0.8-0.7,1.8-1.2C4,11.3,4.5,11,5,11c0.6,0,1.2,0.5,1.9,0.9C8,12.5,9,13,10,13s2-0.5,3-1.1
	c0.7-0.4,1.3-0.9,2-0.9s1.2,0.4,1.8,0.9c1,0.6,2,1.1,3.2,1.1s2.2-0.6,3.2-1.1c0.6-0.4,1.2-0.9,1.8-0.9c0.7,0,1.4,0.3,2.1,0.6
	c0.9,0.4,1.8,0.8,2.7,0.9c0.9,0.1,1.5,0,2.1-0.3c0.8-0.4,1.3-1.1,1.6-1.9c0.2-0.4,0.3-0.8,0.3-1.2c0.1,0.1,0.3,0.1,0.4,0.2
	c0.5,0.4,0.6,0.9,0.8,1.4c0.2,0.6,0.5,1.2,0.8,1.5c0.2,0.2,0.7,0.5,1.2,0.6c0.9,0.2,2,0.2,2,0.2c0.5,0,1-0.4,1-1s-0.5-1-1-1
	c0,0-0.6,0-1.2-0.1C37.6,10.9,37.3,10.8,37.2,10.8L37.2,10.8L37.2,10.8z M29.5,3C28.1,3,27,4.1,27,5.5S28.1,8,29.5,8S32,6.9,32,5.5
	S30.9,3,29.5,3L29.5,3z M14.7,6.7c0,0,0.3-0.3,0.6-0.5C15.5,6.1,15.8,6,16,6c0.2,0,0.5,0.1,0.6,0.2c0.4,0.2,0.6,0.5,0.6,0.5
	c0.4,0.4,1,0.4,1.4,0c0,0,0.3-0.3,0.6-0.5C19.5,6.1,19.8,6,20,6s0.5,0.1,0.6,0.2c0.4,0.2,0.6,0.5,0.6,0.5c0.4,0.4,1,0.4,1.4,0
	c0.4-0.4,0.4-1,0-1.4c0,0-1.4-1.3-2.7-1.3c-0.7,0-1.5,0.4-2,0.7C17.5,4.4,16.7,4,16,4c-1.3,0-2.7,1.3-2.7,1.3c-0.4,0.4-0.4,1,0,1.4
	C13.7,7.1,14.3,7.1,14.7,6.7C14.7,6.7,14.7,6.7,14.7,6.7z M29.5,5C29.8,5,30,5.2,30,5.5S29.8,6,29.5,6S29,5.8,29,5.5S29.2,5,29.5,5
	L29.5,5z M34,2c0.5,0,1,0.5,1,1s-0.5,1-1,1s-1-0.5-1-1S33.5,2,34,2L34,2z M2.7,2.7c0,0,0.3-0.3,0.7-0.5C3.6,2.1,3.8,2,4,2
	c0.2,0,0.4,0.1,0.6,0.2C5,2.4,5.3,2.7,5.3,2.7c0.4,0.4,1,0.4,1.4,0c0,0,0.3-0.3,0.7-0.5C7.6,2.1,7.8,2,8,2c0.2,0,0.4,0.1,0.6,0.2
	C9,2.4,9.3,2.7,9.3,2.7c0.4,0.4,1,0.4,1.4,0c0.4-0.4,0.4-1,0-1.4C10.7,1.3,9.3,0,8,0C7.3,0,6.5,0.4,6,0.7C5.5,0.4,4.7,0,4,0
	C2.7,0,1.3,1.3,1.3,1.3c-0.4,0.4-0.4,1,0,1.4C1.7,3.1,2.3,3.1,2.7,2.7L2.7,2.7z"/>
</svg>
